wp-content/plugins/google-analytics-for-wordpress/lite/assets/vue/img/yir-icon-chat.svg

<svg width="32" height="32" viewBox="0 0 32 32" fill="none" xmlns="http://www.w3.org/2000/svg">
    <path fill-rule="evenodd" clip-rule="evenodd" d="M26.6667 2.6665H5.33341C3.86675 2.6665 2.66675 3.8665 2.66675 5.33317V29.3332L8.00008 23.9998H26.6667C28.1334 23.9998 29.3334 22.7998 29.3334 21.3332V5.33317C29.3334 3.8665 28.1334 2.6665 26.6667 2.6665ZM26.6667 21.3332H6.89341L5.33341 22.8932V5.33317H26.6667V21.3332ZM12.0001 11.9998H9.33341V14.6665H12.0001V11.9998ZM20.0001 11.9998H22.6667V14.6665H20.0001V11.9998ZM17.3334 11.9998H14.6667V14.6665H17.3334V11.9998Z" fill="#6F4BBB"/>
</svg>

<svg width="32" height="32" fill="none" xmlns="http://www.w3.org/2000/svg"><path fill-rule="evenodd" clip-rule="evenodd" d="M26.667 2.667H5.333a2.675 2.675 0 00-2.666 2.666v24L8 24h18.667c1.466 0 2.666-1.2 2.666-2.667v-16c0-1.467-1.2-2.667-2.666-2.667zm0 18.666H6.893l-1.56 1.56V5.333h21.334v16zM12 12H9.333v2.666H12V12zm8 0h2.667v2.666H20V12zm-2.667 0h-2.666v2.666h2.666V12z" fill="#6F4BBB"/></svg>
